img/logo.svg

<svg width="80" height="30" viewBox="0 0 80 30" fill="none" xmlns="http://www.w3.org/2000/svg">
<path d="M4.446 20.147H13.065L15.6 29H17.433L9.633 1.7H7.878L0.078 29H1.911L4.446 20.147ZM4.875 18.509L8.736 4.04L12.597 18.509H4.875ZM28.6074 15.311V16.949H35.2374C35.1984 20.108 34.8474 22.916 32.9754 25.49C31.8444 27.05 30.3624 28.142 28.2174 28.142C26.7354 28.142 25.1364 27.557 23.6934 25.841C21.2364 22.916 20.7684 18.236 20.7684 15.389C20.7684 12.893 21.1194 10.046 21.8604 7.901C23.0694 4.508 25.3314 2.519 28.5684 2.519C30.4014 2.519 32.0784 3.143 33.4824 5.249C34.2234 6.38 34.7304 7.862 34.8474 9.422H36.6024C36.4464 6.77 35.3544 4.04 33.4434 2.441C31.8834 1.154 30.3234 0.880999 28.6464 0.880999C26.0334 0.880999 22.6794 1.427 20.5734 6.341C19.5984 8.642 18.9744 11.528 18.9744 15.428C18.9744 17.729 19.1694 20.108 19.9884 22.643C20.4564 24.164 22.4064 29.78 27.7494 29.78C29.9334 29.78 31.6884 29.039 33.1314 27.401C34.1844 26.231 34.8084 24.827 35.1594 23.891H35.2764V29H36.9924V15.311H28.6074ZM43.3308 4.352L55.0308 29H57.0588V1.7H55.3428V26.348L43.6818 1.7H41.6148V29H43.3308V4.352ZM77.5018 20.342C77.4238 21.707 77.0338 23.462 76.1368 24.983C74.5768 27.635 72.4708 28.181 70.9108 28.181C68.0638 28.181 66.3088 26.075 65.2948 24.203C64.6708 23.033 63.5008 20.42 63.5008 15.077C63.5008 12.503 63.6958 9.5 65.0998 6.692C66.6598 3.572 68.8828 2.519 70.9888 2.519C73.3288 2.519 74.8888 3.728 75.7858 4.976C76.7218 6.263 77.2288 7.979 77.2678 9.578H79.0618C78.9838 8.018 78.5158 4.664 76.1758 2.636C75.2008 1.817 73.5238 0.880999 70.9498 0.880999C68.6098 0.880999 65.8018 1.7 63.7738 5.288C62.0188 8.447 61.7068 12.113 61.7068 14.999C61.7068 20.771 62.9938 23.696 63.5398 24.827C65.6848 29.117 68.6098 29.819 70.8718 29.819C73.6798 29.819 75.5518 28.844 77.0728 26.816C79.0618 24.164 79.2568 20.966 79.2958 20.342H77.5018Z" fill="#1E1E1E"/>
</svg>

<svg width="80" height="30" fill="none" xmlns="http://www.w3.org/2000/svg"><path d="M4.446 20.147h8.619L15.6 29h1.833l-7.8-27.3H7.878L.078 29h1.833l2.535-8.853Zm.429-1.638L8.736 4.04l3.861 14.469H4.875Zm23.732-3.198v1.638h6.63c-.039 3.159-.39 5.967-2.262 8.541-1.13 1.56-2.613 2.652-4.758 2.652-1.482 0-3.08-.585-4.524-2.301-2.457-2.925-2.925-7.605-2.925-10.452 0-2.496.351-5.343 1.092-7.488 1.21-3.393 3.471-5.382 6.708-5.382 1.833 0 3.51.624 4.914 2.73.741 1.131 1.248 2.613 1.365 4.173h1.755c-.156-2.652-1.248-5.382-3.159-6.981-1.56-1.287-3.12-1.56-4.797-1.56-2.613 0-5.967.546-8.073 5.46-.975 2.301-1.599 5.187-1.599 9.087 0 2.301.195 4.68 1.014 7.215.468 1.521 2.418 7.137 7.761 7.137 2.184 0 3.94-.741 5.382-2.379 1.053-1.17 1.677-2.574 2.028-3.51h.117V29h1.716V15.311h-8.385ZM43.331 4.352 55.03 29h2.028V1.7h-1.716v24.648L43.682 1.7h-2.067V29h1.716V4.352Zm34.17 15.99c-.077 1.365-.467 3.12-1.364 4.641-1.56 2.652-3.666 3.198-5.226 3.198-2.847 0-4.602-2.106-5.616-3.978-.624-1.17-1.794-3.783-1.794-9.126 0-2.574.195-5.577 1.599-8.385 1.56-3.12 3.783-4.173 5.889-4.173 2.34 0 3.9 1.209 4.797 2.457.936 1.287 1.443 3.003 1.482 4.602h1.794c-.078-1.56-.546-4.914-2.886-6.942C75.2 1.817 73.524.881 70.95.881c-2.34 0-5.148.819-7.176 4.407-1.755 3.159-2.067 6.825-2.067 9.711 0 5.772 1.287 8.697 1.833 9.828 2.145 4.29 5.07 4.992 7.332 4.992 2.808 0 4.68-.975 6.2-3.003 1.99-2.652 2.185-5.85 2.224-6.474h-1.794Z" fill="#1E1E1E"/></svg>
